src/ui/icons/weather/1.svg

<?xml version="1.0" encoding="UTF-8"?>
<svg width="40px" height="40px" viewBox="0 0 40 40" version="1.1" xmlns="http://www.w3.org/2000/svg" xmlns:xlink="http://www.w3.org/1999/xlink">
    <title>1</title>
    <g id="Page-1" stroke="none" stroke-width="1" fill="none" fill-rule="evenodd">
        <g id="icons-day" transform="translate(-25.000000, -6.000000)" fill="#FED100" fill-rule="nonzero">
            <g id="icons" transform="translate(25.000000, 6.000000)">
                <g id="1" transform="translate(4.000000, 4.000000)">
                    <path d="M15.793981,22.7913143 C11.9294537,22.7913143 8.79664762,19.6585082 8.79664762,15.793981 C8.79664762,11.9294537 11.9294537,8.79664762 15.793981,8.79664762 C19.6585082,8.79664762 22.7913143,11.9294537 22.7913143,15.793981 C22.7913143,19.6585082 19.6585082,22.7913143 15.793981,22.7913143 Z" id="Path"></path>
                    <path d="M15.793981,21.5917715 C18.9960607,21.5917715 21.5917715,18.9960607 21.5917715,15.793981 C21.5917715,12.5919013 18.9960607,9.99619048 15.793981,9.99619048 C12.5919013,9.99619048 9.99619048,12.5919013 9.99619048,15.793981 C9.99619048,18.9960607 12.5919013,21.5917715 15.793981,21.5917715 Z M15.793981,22.7913143 C11.9294537,22.7913143 8.79664762,19.6585082 8.79664762,15.793981 C8.79664762,11.9294537 11.9294537,8.79664762 15.793981,8.79664762 C19.6585082,8.79664762 22.7913143,11.9294537 22.7913143,15.793981 C22.7913143,19.6585082 19.6585082,22.7913143 15.793981,22.7913143 Z M16.4937143,5.22660815 C16.4937143,5.66826764 16.1356785,6.02630339 15.694019,6.02630339 C15.2523596,6.02630339 14.8943238,5.66826764 14.8943238,5.22660815 L14.8943238,0.820887162 C14.8943238,0.379227677 15.2523596,0.0211919238 15.694019,0.0211919238 C16.1356785,0.0211919238 16.4937143,0.379227677 16.4937143,0.820887162 L16.4937143,5.22660815 Z M16.4937143,30.5772471 C16.4937143,31.0189066 16.1356785,31.3769423 15.694019,31.3769423 C15.2523596,31.3769423 14.8943238,31.0189066 14.8943238,30.5772471 L14.8943238,26.1714261 C14.8943238,25.7297666 15.2523596,25.3717309 15.694019,25.3717309 C16.1356785,25.3717309 16.4937143,25.7297666 16.4937143,26.1714261 L16.4937143,30.5772471 Z M8.82263771,7.74164968 C9.0266973,7.94326435 9.1071367,8.23873206 9.03344043,8.51596418 C8.95974416,8.7931963 8.74320322,9.0097181 8.46596459,9.08338986 C8.18872596,9.15706163 7.89326536,9.07659611 7.69166872,8.8725187 L4.576256,5.75720594 C4.26394754,5.44489748 4.26394754,4.93854542 4.576256,4.62623695 C4.88856446,4.31392849 5.39491653,4.31392849 5.70722499,4.62623695 L8.82253775,7.74164968 L8.82263771,7.74164968 Z M26.7482063,25.6672183 C26.9502345,25.8692464 27.0291355,26.1637089 26.955188,26.4396845 C26.8812406,26.7156601 26.6656791,26.9312215 26.3897035,27.005169 C26.1137279,27.0791164 25.8192655,27.0002154 25.6172373,26.7981873 L22.5019246,23.6827746 C22.2961286,23.4815341 22.214358,23.1852229 22.2878178,22.9069184 C22.3612776,22.628614 22.578633,22.4112586 22.8569375,22.3377987 C23.1352419,22.2643389 23.4315531,22.3461095 23.6327936,22.5519055 L26.7482063,25.6672183 L26.7482063,25.6672183 Z M23.6963694,8.87261867 C23.4947547,9.07667825 23.199287,9.15711765 22.9220549,9.08342138 C22.6448227,9.00972511 22.428301,8.79318418 22.3546292,8.51594554 C22.2809574,8.23870691 22.3614229,7.94324631 22.5655003,7.74164968 L25.6808131,4.62623695 C25.8828413,4.42420878 26.1773037,4.34530779 26.4532793,4.41925522 C26.7292549,4.49320265 26.9448164,4.70876414 27.0187638,4.98473974 C27.0927113,5.26071534 27.0138103,5.5551778 26.8117821,5.75720594 L23.6963694,8.8725187 L23.6963694,8.87261867 Z M5.77080076,26.7981873 C5.4584923,27.1104957 4.95214023,27.1104957 4.63983177,26.7981873 C4.32752331,26.4858788 4.32752331,25.9795267 4.63983177,25.6672183 L7.7552445,22.5519055 C7.95648498,22.3461095 8.25279615,22.2643389 8.53110062,22.3377987 C8.80940508,22.4112586 9.02676048,22.628614 9.1002203,22.9069184 C9.17368012,23.1852229 9.09190951,23.4815341 8.88611352,23.6827746 L5.77080076,26.7981873 L5.77080076,26.7981873 Z M26.2613918,16.4937143 C25.8197324,16.4937143 25.4616966,16.1356785 25.4616966,15.694019 C25.4616966,15.2523596 25.8197324,14.8943238 26.2613918,14.8943238 L30.6671128,14.8943238 C31.1087723,14.8943238 31.4668081,15.2523596 31.4668081,15.694019 C31.4668081,16.1356785 31.1087723,16.4937143 30.6671128,16.4937143 L26.2613918,16.4937143 Z M0.871068038,16.4937143 C0.429408554,16.4937143 0.0713728,16.1356785 0.0713728,15.694019 C0.0713728,15.2523596 0.429408554,14.8943238 0.871068038,14.8943238 L5.27678903,14.8943238 C5.71844851,14.8943238 6.07648427,15.2523596 6.07648427,15.694019 C6.07648427,16.1356785 5.71844851,16.4937143 5.27678903,16.4937143 L0.871068038,16.4937143 L0.871068038,16.4937143 Z" id="Shape"></path>
                </g>
            </g>
        </g>
    </g>
</svg>

<svg id="icon-icon_weather_1" width="40" height="40" viewBox="0 0 40 40">
    <g fill="none" fill-rule="evenodd">
        <g fill-rule="nonzero">
            <g>
                <g>
                    <path fill="#FED100" d="M15.794 22.791c-3.865 0-6.997-3.132-6.997-6.997 0-3.865 3.132-6.997 6.997-6.997 3.865 0 6.997 3.132 6.997 6.997 0 3.865-3.132 6.997-6.997 6.997z" transform="translate(-25 -6) translate(25 6) translate(4 4)"/>
                    <path fill="#333" d="M15.794 21.592c3.202 0 5.798-2.596 5.798-5.798s-2.596-5.798-5.798-5.798-5.798 2.596-5.798 5.798 2.596 5.798 5.798 5.798zm0 1.2c-3.865 0-6.997-3.133-6.997-6.998s3.132-6.997 6.997-6.997c3.865 0 6.997 3.132 6.997 6.997 0 3.865-3.132 6.997-6.997 6.997zm.7-17.565c0 .441-.358.8-.8.8-.442 0-.8-.359-.8-.8V.82c0-.442.358-.8.8-.8.442 0 .8.358.8.8v4.406zm0 25.35c0 .442-.358.8-.8.8-.442 0-.8-.358-.8-.8v-4.406c0-.441.358-.8.8-.8.442 0 .8.359.8.8v4.406zM8.823 7.742c.204.201.284.497.21.774-.073.277-.29.494-.567.567-.277.074-.573-.006-.774-.21L4.576 5.757c-.312-.312-.312-.818 0-1.13.313-.313.819-.313 1.131 0l3.116 3.115zm17.925 17.925c.202.202.281.497.207.773-.074.276-.29.491-.565.565-.276.074-.57-.005-.773-.207l-3.115-3.115c-.206-.201-.288-.498-.214-.776.073-.278.29-.496.569-.57.278-.073.575.01.776.215l3.115 3.115zM23.696 8.873c-.201.204-.497.284-.774.21-.277-.073-.494-.29-.567-.567-.074-.277.006-.573.21-.774l3.116-3.116c.202-.202.496-.28.772-.207.276.074.492.29.566.566.074.276-.005.57-.207.772l-3.116 3.116zM5.771 26.798c-.313.312-.819.312-1.131 0-.312-.312-.312-.818 0-1.13l3.115-3.116c.201-.206.498-.288.776-.214.278.073.496.29.57.569.073.278-.01.575-.215.776l-3.115 3.115zm20.49-10.304c-.441 0-.8-.358-.8-.8 0-.442.359-.8.8-.8h4.406c.442 0 .8.358.8.8 0 .442-.358.8-.8.8h-4.406zm-25.39 0c-.442 0-.8-.358-.8-.8 0-.442.358-.8.8-.8h4.406c.441 0 .8.358.8.8 0 .442-.359.8-.8.8H.87z" transform="translate(-25 -6) translate(25 6) translate(4 4)"/>
                </g>
            </g>
        </g>
    </g>
</svg>
